packages/playground/src/assets/Map.svg

<svg width="24" height="24" viewBox="0 0 24 24" fill="none" xmlns="http://www.w3.org/2000/svg">
<path d="M19.5 15.2219V6.22812C19.5 5.89359 19.148 5.67602 18.8488 5.82562L15.6566 7.42172C15.5559 7.47207 15.4399 7.48284 15.3317 7.45191L8.66831 5.54809C8.56005 5.51716 8.44414 5.52793 8.34344 5.57828L4.74875 7.37562C4.5963 7.45185 4.5 7.60767 4.5 7.77812V16.7719C4.5 17.1064 4.85204 17.324 5.15125 17.1744L8.34344 15.5783C8.44414 15.5279 8.56005 15.5172 8.66831 15.5481L15.3317 17.4519C15.4399 17.4828 15.5559 17.4721 15.6566 17.4217L19.2512 15.6244C19.4037 15.5482 19.5 15.3923 19.5 15.2219Z" stroke="#222222"/>
<path d="M15.5 17.5V7.5" stroke="#222222"/>
<path d="M8.5 15.5V5.5" stroke="#222222"/>
</svg>

<path fill="none"  stroke="currentColor" d="M19.5 15.2219V6.2281c0-.3345-.352-.552-.6512-.4025l-3.1922 1.5961a.4501.4501 0 0 1-.3249.0302L8.6683 5.5481a.45.45 0 0 0-.3249.0302L4.7487 7.3756a.45.45 0 0 0-.2487.4025v8.9938c0 .3345.352.5521.6513.4025l3.1921-1.5961a.4499.4499 0 0 1 .325-.0302l6.6633 1.9038a.45.45 0 0 0 .3249-.0302l3.5946-1.7973a.45.45 0 0 0 .2488-.4025ZM15.5 17.5v-10M8.5 15.5v-10" />
